X: 7417
T: Cloonagroe, The
R: reel
M: 4/4
K: Dmajor
|:BFAF DEFA|B2 Ad Beed|B2 AF ~D3 E|F2 FE DB,A,D:|
|:~B3 c ~d3 f|e2 fe dBAd|1 BABc ~d3 f|edBA FEFA:|2 d2 fe dBAd|BFAF Eeed||

